assets/img/hbp2.svg

<?xml version="1.0" encoding="UTF-8"?>
<svg width="448px" height="88px" viewBox="0 0 448 88" version="1.1" xmlns="http://www.w3.org/2000/svg" xmlns:xlink="http://www.w3.org/1999/xlink">
    <!-- Generator: Sketch 51.3 (57544) - http://www.bohemiancoding.com/sketch -->
    <title>hbp2</title>
    <desc>Created with Sketch.</desc>
    <defs></defs>
    <g id="Page-1" stroke="none" stroke-width="1" fill="none" fill-rule="evenodd">
        <path d="M0.5961,0.427 L447.5961,0.427 L447.5961,87.427 L0.5961,87.427 L0.5961,0.427 Z M7.5961,6.03092157 C8.2513095,9.45314379 9.17952296,14.6871307 9.17952296,25.4570654 L9.17952296,62.296281 C9.17952296,73.5694837 8.30591029,78.199549 7.5961,81.7224248 L16.8782346,81.7224248 C16.1684243,77.2936667 15.3494124,72.6636013 15.3494124,60.6858235 L15.3494124,48.2047778 L32.8762666,48.2047778 L32.8762666,61.4910523 C32.8762666,73.5694837 32.1664563,77.0923595 31.2928437,81.7224248 L40.6295791,81.7224248 C39.7559664,77.2936667 39.0461561,73.5694837 39.0461561,61.0884379 L39.0461561,26.1616405 C39.0461561,14.5864771 39.7013656,10.9629477 40.6295791,6.03092157 L31.2928437,6.03092157 C32.002654,10.0570654 32.8762666,14.8884379 32.8762666,25.2557582 L32.8762666,38.6426863 L15.3494124,38.6426863 L15.3494124,23.3433399 C15.3494124,13.7812484 16.2776259,9.55379739 16.9874362,6.03092157 L7.5961,6.03092157 Z M66.2373505,5.93026797 L65.9097457,5.93026797 L50.1301169,63.7054314 C46.7448678,76.0858235 45.5436503,78.8034706 44.1786305,81.7224248 L54.1705755,81.7224248 C53.9521723,75.7838627 55.5355952,69.2413791 56.2454055,66.4230784 L58.3202356,58.2701373 L72.6802439,58.2701373 L75.0826787,68.4361503 C76.5569001,74.5760196 76.7753033,78.4008562 76.7753033,81.7224248 L86.4942442,81.5211176 C84.9654221,77.696281 83.0543943,72.8649085 80.1059516,61.0884379 L66.2373505,5.93026797 Z M65.8005441,29.1812484 L70.550813,49.4126209 L60.6134689,49.4126209 L65.8005441,29.1812484 Z M113.740039,67.530268 C109.371976,70.751183 105.276917,72.8649085 97.9604105,74.0727516 L98.1788137,24.8531438 C98.2334145,13.6805948 98.9432248,10.2583725 99.7622367,6.33288235 L90.5893036,6.33288235 C91.2445131,9.65445098 92.0089242,13.2779804 92.0089242,24.1485686 L92.0089242,57.4649085 C92.0089242,73.972098 91.4083155,76.8910523 90.3709005,81.7224248 L110.35479,81.7224248 L113.740039,67.530268 Z M136.781574,5.93026797 L136.453969,5.93026797 L120.67434,63.7054314 C117.289091,76.0858235 116.087873,78.8034706 114.722854,81.7224248 L124.714799,81.7224248 C124.496395,75.7838627 126.079818,69.2413791 126.789629,66.4230784 L128.864459,58.2701373 L143.224467,58.2701373 L145.626902,68.4361503 C147.101123,74.5760196 147.319526,78.4008562 147.319526,81.7224248 L157.038467,81.5211176 C155.509645,77.696281 153.598617,72.8649085 150.650175,61.0884379 L136.781574,5.93026797 Z M136.344767,29.1812484 L141.095036,49.4126209 L131.157692,49.4126209 L136.344767,29.1812484 Z M184.284262,67.530268 C179.916199,70.751183 175.82114,72.8649085 168.504634,74.0727516 L168.723037,24.8531438 C168.777638,13.6805948 169.487448,10.2583725 170.30646,6.33288235 L161.133527,6.33288235 C161.788736,9.65445098 162.553147,13.2779804 162.553147,24.1485686 L162.553147,57.4649085 C162.553147,73.972098 161.952539,76.8910523 160.915124,81.7224248 L180.899013,81.7224248 L184.284262,67.530268 Z M187.778713,6.23222876 C188.324721,8.74856863 189.198334,12.372098 189.198334,26.0609869 L189.198334,59.9812484 C189.198334,64.4100065 189.034531,73.3681765 187.614911,81.5211176 L196.897045,81.7224248 C199.572484,81.8230784 202.630129,80.5145817 204.923362,79.0047778 C208.199409,76.8910523 211.912263,69.2413791 211.912263,60.8871307 C211.912263,52.4322288 208.527014,45.6884379 204.541156,41.2596797 C206.670587,38.3407255 210.001235,33.9119673 210.001235,24.9537974 C210.001235,18.1093529 207.161994,6.23222876 196.951646,6.23222876 L187.778713,6.23222876 Z M195.259022,12.6740588 C199.681686,13.378634 203.285338,17.0021634 203.285338,25.557719 C203.285338,34.3145817 199.681686,38.7433399 195.259022,40.8570654 L195.259022,12.6740588 Z M195.259022,42.2662157 C203.339939,45.8897451 205.032563,54.7472614 205.032563,60.3838627 C205.032563,62.9002026 204.704959,75.2805948 195.259022,74.978634 L195.259022,42.2662157 Z M215.297512,6.23222876 C216.007323,9.45314379 216.607931,12.0701373 216.607931,23.5446471 L216.607931,53.3381111 C216.607931,70.5498758 221.467402,82.427 229.930524,82.427 C235.772809,82.427 240.523078,76.9917059 242.925513,74.2740588 C242.980114,76.4884379 242.925513,77.3943203 242.652509,81.7224248 L249.914414,81.7224248 C248.822398,71.5564118 248.822398,67.1276536 248.822398,61.8936667 L248.822398,21.6322288 C248.822398,11.7681765 249.259205,9.45314379 249.914414,6.23222876 L241.178288,6.23222876 C242.652509,11.9694837 242.652509,20.1224248 242.652509,23.5446471 L242.652509,53.3381111 C242.652509,58.0688301 242.543307,59.3773268 242.324904,60.8871307 C241.178288,67.9328824 237.356232,74.0727516 232.933568,74.0727516 C230.31273,74.0727516 225.562461,71.3551046 223.542232,62.1956275 C222.941623,59.3773268 222.72322,56.5590261 222.72322,51.8283072 L222.72322,24.3498758 C222.72322,13.881902 223.105425,11.1642549 224.033639,6.23222876 L215.297512,6.23222876 Z M257.88613,58.7734052 C257.88613,72.6636013 257.121719,76.9917059 256.248106,81.7224248 L266.130849,81.7224248 C279.28964,81.7224248 287.425158,64.3093529 287.425158,44.681902 C287.425158,37.3341895 286.333142,29.281902 283.330099,22.1354967 C277.105609,7.4400719 268.041877,6.13157516 260.506968,6.13157516 C258.705142,6.13157516 257.667727,6.33288235 256.248106,6.53418954 C256.739513,10.0570654 257.88613,16.3982418 257.88613,26.8662157 L257.88613,58.7734052 Z M264.001419,26.9668693 C264.001419,23.2426863 264.001419,17.8073922 264.329023,13.1773268 C277.324012,16.4988954 280.217854,33.1067386 280.217854,43.675366 C280.217854,55.5524902 276.505,72.1603333 264.329023,74.3747124 C264.001419,68.3354967 264.001419,65.5171961 264.001419,56.9616405 L264.001419,26.9668693 Z M308.610265,5.93026797 L308.282661,5.93026797 L292.503032,63.7054314 C289.117783,76.0858235 287.916565,78.8034706 286.551546,81.7224248 L296.54349,81.7224248 C296.325087,75.7838627 297.90851,69.2413791 298.618321,66.4230784 L300.693151,58.2701373 L315.053159,58.2701373 L317.455594,68.4361503 C318.929815,74.5760196 319.148218,78.4008562 319.148218,81.7224248 L328.867159,81.5211176 C327.338337,77.696281 325.427309,72.8649085 322.478867,61.0884379 L308.610265,5.93026797 Z M308.173459,29.1812484 L312.923728,49.4126209 L302.986384,49.4126209 L308.173459,29.1812484 Z M334.327238,57.0622941 C334.327238,69.5433399 333.235223,76.4884379 332.470812,81.7224248 L342.02595,81.7224248 C341.261539,75.8845163 340.442527,66.2217712 340.442527,60.3838627 L340.442527,48.0034706 L342.02595,48.2047778 C347.213025,48.9093529 355.457745,43.8766732 355.457745,27.3694837 C355.457745,14.5864771 349.888464,6.23222876 341.643745,6.23222876 L332.743815,6.23222876 C333.399025,9.05052941 334.327238,13.0766732 334.327238,26.4636013 L334.327238,57.0622941 Z M340.442527,19.7198105 C340.442527,17.2034706 340.551729,13.7812484 340.66093,11.2649085 C342.626559,11.6675229 344.646788,12.2714444 346.394013,15.5930131 C348.25044,19.1158889 349.014851,23.8466078 349.014851,28.0740588 C349.014851,41.6622941 343.063365,43.675366 340.442527,44.4805948 L340.442527,19.7198105 Z M358.952196,6.23222876 C360.098812,12.7747124 360.481018,20.2230784 360.481018,25.3564118 L360.481018,62.296281 C360.481018,71.9590261 359.662006,77.2936667 358.952196,81.7224248 L380.410307,81.7224248 L383.41335,69.1407255 C374.731824,74.5760196 371.837982,74.5760196 366.596306,74.5760196 L366.596306,46.9969346 C369.708552,47.399549 371.237374,47.8021634 375.933042,50.3185033 L379.427493,39.7498758 L366.596306,39.7498758 L366.596306,13.378634 C370.909769,13.0766732 373.312204,14.0832092 377.89867,17.9080458 L381.010915,6.23222876 L358.952196,6.23222876 Z M405.581272,9.05052941 C403.615643,7.54072549 400.994805,5.427 397.281951,5.427 C390.566054,5.427 385.160576,15.2910523 385.160576,27.2688301 C385.160576,38.7433399 388.655026,42.7694837 397.391153,52.8348431 C398.59237,54.2439935 400.831003,57.5655621 400.831003,62.799549 C400.831003,68.1341895 398.264766,73.3681765 394.715714,73.3681765 C390.94826,73.3681765 388.545825,68.1341895 386.689398,64.2086993 L386.689398,80.2126209 C388.600426,81.2191569 390.511453,82.2256928 393.7329,82.2256928 C402.305224,82.2256928 407.601501,73.1668693 407.601501,60.6858235 C407.601501,53.4387647 405.963477,47.5002026 400.066592,41.2596797 C394.934117,35.8243856 391.494268,32.1002026 391.494268,24.9537974 C391.494268,19.0152353 394.278908,14.7877843 397.827959,14.7877843 C401.486212,14.7877843 403.779446,18.1093529 405.581272,20.7263464 L405.581272,9.05052941 Z M411.532758,6.33288235 L409.348726,19.0152353 C417.265841,13.7812484 419.668276,13.7812484 422.398316,13.881902 L422.398316,62.4975882 C422.398316,71.4557582 421.852308,76.9917059 421.251699,81.7224248 L429.60562,81.7224248 C428.732008,75.8845163 428.459004,69.7446471 428.459004,63.7054314 L428.459004,13.881902 C433.209273,13.881902 434.683494,14.5864771 439.160759,17.9080458 L442,6.33288235 L411.532758,6.33288235 Z" id="hbp2" fill="#006341"></path>
    </g>
</svg>

<svg width="448" height="88" viewBox="0 0 448 88" xmlns="http://www.w3.org/2000/svg"><title>hbp2</title><path d="M.596.427h447v87h-447v-87zm7 5.604c.655 3.422 1.584 8.656 1.584 19.426v36.84c0 11.272-.874 15.903-1.584 19.425h9.282c-.71-4.428-1.529-9.058-1.529-21.036V48.205h17.527V61.49c0 12.078-.71 15.601-1.583 20.231h9.337c-.874-4.428-1.584-8.153-1.584-20.634V26.162c0-11.576.655-15.2 1.584-20.131h-9.337c.71 4.026 1.583 8.857 1.583 19.225v13.387H15.35v-15.3c0-9.562.929-13.79 1.638-17.312h-9.39zm58.641-.1h-.327L50.13 63.704c-3.385 12.38-4.586 15.098-5.951 18.017h9.992c-.219-5.938 1.365-12.48 2.074-15.299l2.075-8.153h14.36l2.403 10.166c1.474 6.14 1.692 9.965 1.692 13.286l9.72-.2c-1.53-3.826-3.44-8.657-6.389-20.434L66.237 5.93zm-.436 23.25l4.75 20.232h-9.938l5.188-20.232zm47.939 38.35c-4.368 3.22-8.463 5.334-15.78 6.542l.219-49.22c.054-11.172.764-14.595 1.583-18.52H90.59c.656 3.321 1.42 6.945 1.42 17.816v33.316c0 16.507-.6 19.426-1.638 24.257h19.984l3.385-14.192zm23.042-61.6h-.328l-15.78 57.774c-3.385 12.38-4.586 15.098-5.951 18.017h9.992c-.219-5.938 1.365-12.48 2.075-15.299l2.074-8.153h14.36l2.403 10.166c1.474 6.14 1.693 9.965 1.693 13.286l9.718-.2c-1.528-3.826-3.44-8.657-6.388-20.434L136.782 5.93zm-.437 23.25l4.75 20.232h-9.937l5.187-20.232zm47.94 38.35c-4.369 3.22-8.464 5.334-15.78 6.542l.218-49.22c.055-11.172.764-14.595 1.583-18.52h-9.172c.655 3.321 1.42 6.945 1.42 17.816v33.316c0 16.507-.601 19.426-1.639 24.257H180.9l3.385-14.192zm3.494-61.299c.546 2.517 1.42 6.14 1.42 19.829v33.92c0 4.429-.164 13.387-1.584 21.54l9.282.201c2.675.101 5.733-1.207 8.026-2.717 3.276-2.114 6.99-9.764 6.99-18.118 0-8.455-3.386-15.199-7.372-19.627 2.13-2.92 5.46-7.348 5.46-16.306 0-6.845-2.839-18.722-13.05-18.722h-9.172zm7.48 6.442c4.423.705 8.026 4.328 8.026 12.884 0 8.757-3.603 13.185-8.026 15.3V12.673zm0 29.592c8.08 3.624 9.774 12.481 9.774 18.118 0 2.516-.328 14.897-9.774 14.595V42.266zm20.039-36.034c.71 3.221 1.31 5.838 1.31 17.313v29.793c0 17.212 4.86 29.089 13.323 29.089 5.842 0 10.592-5.435 12.995-8.153.054 2.214 0 3.12-.273 7.448h7.261c-1.092-10.166-1.092-14.594-1.092-19.828V21.632c0-9.864.437-12.179 1.092-15.4h-8.736c1.475 5.737 1.475 13.89 1.475 17.313v29.793c0 4.73-.11 6.04-.328 7.55-1.147 7.045-4.969 13.185-9.391 13.185-2.621 0-7.372-2.718-9.392-11.877-.6-2.819-.819-5.637-.819-10.368V24.35c0-10.468.382-13.186 1.31-18.118h-8.735zm42.588 52.541c0 13.89-.764 18.219-1.638 22.95h9.883c13.159 0 21.294-17.414 21.294-37.041 0-7.348-1.092-15.4-4.095-22.547-6.224-14.695-15.288-16.003-22.823-16.003-1.802 0-2.84.2-4.259.402.492 3.523 1.638 9.864 1.638 20.332v31.907zm6.115-31.806c0-3.724 0-9.16.328-13.79 12.995 3.322 15.889 19.93 15.889 30.498 0 11.877-3.713 28.485-15.889 30.7-.328-6.04-.328-8.858-.328-17.413V26.967zm44.61-21.037h-.328l-15.78 57.775c-3.385 12.38-4.586 15.098-5.951 18.017h9.991c-.218-5.938 1.366-12.48 2.075-15.299l2.075-8.153h14.36l2.403 10.166c1.474 6.14 1.692 9.965 1.692 13.286l9.72-.2c-1.53-3.826-3.44-8.657-6.39-20.434L308.61 5.93zm-.438 23.251l4.75 20.232h-9.937l5.187-20.232zm26.154 27.881c0 12.481-1.092 19.426-1.856 24.66h9.555c-.764-5.837-1.583-15.5-1.583-21.338v-12.38l1.583.2c5.187.705 13.432-4.327 13.432-20.835 0-12.783-5.57-21.137-13.814-21.137h-8.9c.655 2.819 1.583 6.845 1.583 20.232v30.598zm6.116-37.342c0-2.517.109-5.939.218-8.455 1.966.403 3.986 1.006 5.733 4.328 1.856 3.523 2.62 8.254 2.62 12.481 0 13.588-5.95 15.601-8.571 16.407V19.72zm18.51-13.488c1.146 6.543 1.528 13.991 1.528 19.124v36.94c0 9.663-.819 14.998-1.529 19.426h21.458l3.003-12.581c-8.681 5.435-11.575 5.435-16.817 5.435v-27.58c3.113.404 4.641.806 9.337 3.323l3.494-10.57h-12.83V13.38c4.313-.302 6.715.704 11.302 4.529l3.112-11.676h-22.059zm46.628 2.819c-1.965-1.51-4.586-3.624-8.299-3.624-6.716 0-12.121 9.864-12.121 21.842 0 11.474 3.494 15.5 12.23 25.566 1.201 1.409 3.44 4.73 3.44 9.965 0 5.334-2.566 10.568-6.115 10.568-3.768 0-6.17-5.234-8.027-9.16v16.005c1.911 1.006 3.822 2.013 7.044 2.013 8.572 0 13.869-9.06 13.869-21.54 0-7.247-1.639-13.186-7.535-19.426-5.133-5.436-8.573-9.16-8.573-16.306 0-5.939 2.785-10.166 6.334-10.166 3.658 0 5.951 3.321 7.753 5.938V9.051zm5.952-2.718l-2.184 12.682c7.917-5.234 10.32-5.234 13.05-5.133v48.616c0 8.958-.547 14.494-1.147 19.224h8.354c-.874-5.837-1.147-11.977-1.147-18.017V13.882c4.75 0 6.224.704 10.702 4.026L442 6.333h-30.467z" fill="#006341" fill-rule="evenodd"/></svg>
